packages/design-system/src/icons/assets/btn_search_delete.svg

<svg width="16" height="16" viewBox="0 0 16 16" fill="none" xmlns="http://www.w3.org/2000/svg">
<g clip-path="url(#clip0_5498_1681)">
<path d="M8.0001 9.03135L5.8251 11.2063C5.6876 11.3438 5.5126 11.4126 5.3001 11.4126C5.0876 11.4126 4.9126 11.3438 4.7751 11.2063C4.6376 11.0688 4.56885 10.8938 4.56885 10.6813C4.56885 10.4688 4.6376 10.2938 4.7751 10.1563L6.9501 7.98135L4.7751 5.8251C4.6376 5.6876 4.56885 5.5126 4.56885 5.3001C4.56885 5.0876 4.6376 4.9126 4.7751 4.7751C4.9126 4.6376 5.0876 4.56885 5.3001 4.56885C5.5126 4.56885 5.6876 4.6376 5.8251 4.7751L8.0001 6.9501L10.1563 4.7751C10.2938 4.6376 10.4688 4.56885 10.6813 4.56885C10.8938 4.56885 11.0688 4.6376 11.2063 4.7751C11.3563 4.9251 11.4313 5.10322 11.4313 5.30947C11.4313 5.51572 11.3563 5.6876 11.2063 5.8251L9.03135 7.98135L11.2063 10.1563C11.3438 10.2938 11.4126 10.4688 11.4126 10.6813C11.4126 10.8938 11.3438 11.0688 11.2063 11.2063C11.0563 11.3563 10.8782 11.4313 10.672 11.4313C10.4657 11.4313 10.2938 11.3563 10.1563 11.2063L8.0001 9.03135Z" fill="#93959D"/>
</g>
<defs>
<clipPath id="clip0_5498_1681">
<rect width="16" height="16" fill="white"/>
</clipPath>
</defs>
</svg>

<svg xmlns="http://www.w3.org/2000/svg" width="16" height="16" fill="none"><g clip-path="url(#a)"><path fill="#93959D" d="m8 9.031-2.175 2.175a.71.71 0 0 1-.525.207.71.71 0 0 1-.525-.207.71.71 0 0 1-.206-.525q0-.318.206-.525L6.95 7.981 4.775 5.825A.71.71 0 0 1 4.57 5.3q0-.318.206-.525A.71.71 0 0 1 5.3 4.57q.32 0 .525.206L8 6.95l2.156-2.175a.71.71 0 0 1 .525-.206q.32 0 .525.206a.73.73 0 0 1 .225.534.67.67 0 0 1-.225.516L9.031 7.981l2.175 2.175a.71.71 0 0 1 .207.525.71.71 0 0 1-.207.525.73.73 0 0 1-.534.225.67.67 0 0 1-.516-.225z"/></g><defs><clipPath id="a"><path fill="#fff" d="M0 0h16v16H0z"/></clipPath></defs></svg>
